app/views/shared/svg/k12/_svg_icon_courses.svg

<?xml version="1.0" encoding="UTF-8" standalone="no"?>
<svg width="34px" height="36px" class="ic-icon-svg ic-icon-svg--dashboard" viewBox="0 0 34 36" version="1.1" xmlns="http://www.w3.org/2000/svg" xmlns:xlink="http://www.w3.org/1999/xlink" xmlns:sketch="http://www.bohemiancoding.com/sketch/ns">
    <!-- Generator: Sketch 3.3.2 (12043) - http://www.bohemiancoding.com/sketch -->
    <title>icon-courses</title>
    <desc>Created with Sketch.</desc>
    <defs></defs>
    <g id="Page-1" stroke="none" stroke-width="1" fill="none" fill-rule="evenodd" sketch:type="MSPage">
        <g id="_svg_icon_courses" sketch:type="MSLayerGroup" fill="#000000">
            <g id="Page-2" sketch:type="MSShapeGroup">
                <g id="1--Courses-Art-History-Modules">
                    <path d="M4,31 L4,34.000293 C4,35.110107 4.8916773,36 5.991617,36 L32.008383,36 C33.1021596,36 34,35.104701 34,34.000293 L34,1.999707 C34,0.889893 33.1083227,0 32.008383,0 L5.991617,0 C4.8978404,0 4,0.895299 4,1.999707 L4,5 L5.009222,5 C6.6652706,5 8,6.34357 8,8 C8,9.652448 6.657998,11 5.009222,11 L4,11 L4,15 L5.009222,15 C6.6652706,15 8,16.34357 8,18 C8,19.652448 6.657998,21 5.009222,21 L4,21 L4,25 L5.009222,25 C6.6652706,25 8,26.34357 8,28 C8,29.652448 6.657998,31 5.009222,31 L4,31 L4,31 Z M12,8 L26,8 L26,16 L12,16 L12,8 L12,8 Z M14,10 L24,10 L24,14 L14,14 L14,10 L14,10 Z M0,8 C0,8.556135 0.4435864,9 0.990778,9 L5.009222,9 C5.5490248,9 6,8.552285 6,8 C6,7.443865 5.5564136,7 5.009222,7 L0.990778,7 C0.4509752,7 0,7.447715 0,8 L0,8 Z M0,18 C0,18.556135 0.4435864,19 0.990778,19 L5.009222,19 C5.5490248,19 6,18.552285 6,18 C6,17.443865 5.5564136,17 5.009222,17 L0.990778,17 C0.4509752,17 0,17.447715 0,18 L0,18 Z M0,28 C0,28.556135 0.4435864,29 0.990778,29 L5.009222,29 C5.5490248,29 6,28.552285 6,28 C6,27.443865 5.5564136,27 5.009222,27 L0.990778,27 C0.4509752,27 0,27.447715 0,28 L0,28 Z" id="icon-courses"></path>
                </g>
            </g>
        </g>
    </g>
</svg>

<svg width="34" height="36" class="ic-icon-svg ic-icon-svg--dashboard" viewBox="0 0 34 36" xmlns="http://www.w3.org/2000/svg"><title>icon-courses</title><path d="M4 31v3c0 1.11.892 2 1.992 2h26.016A2 2 0 0 0 34 34V2c0-1.11-.892-2-1.992-2H5.992A2 2 0 0 0 4 2v3h1.01A2.993 2.993 0 0 1 8 8a3 3 0 0 1-2.99 3H4v4h1.01A2.993 2.993 0 0 1 8 18a3 3 0 0 1-2.99 3H4v4h1.01A2.993 2.993 0 0 1 8 28a3 3 0 0 1-2.99 3H4zm8-23h14v8H12V8zm2 2h10v4H14v-4zM0 8c0 .556.444 1 .99 1h4.02A1 1 0 0 0 6 8c0-.556-.444-1-.99-1H.99A1 1 0 0 0 0 8zm0 10c0 .556.444 1 .99 1h4.02A1 1 0 0 0 6 18c0-.556-.444-1-.99-1H.99A1 1 0 0 0 0 18zm0 10c0 .556.444 1 .99 1h4.02A1 1 0 0 0 6 28c0-.556-.444-1-.99-1H.99A1 1 0 0 0 0 28z" fill="currentColor" fill-rule="evenodd"/></svg>
